icons/imahe-circle.svg

<svg xmlns="http://www.w3.org/2000/svg" viewBox="0 0 24 24" fill="currentColor">
  <path d="M12 3.75c-4.58579 0-8.25 3.66421-8.25 8.25 0 .3069.01713.6103.05052.9094 1.09621-.8518 2.82948-1.76 5.19929-1.76 1.09919 0 1.96379.2074 2.68789.5601.7181.3499 1.2557.8228 1.7174 1.2846.1665.1664.322.3286.4722.4853l.0002.0002v.0001c.7082.7388 1.2985 1.3545 2.3595 1.7082l.0073.0024v.0001c1.2392.4273 2.077.201 2.6562-.1633.5476-.3445.9241-.8522 1.1603-1.2473.124-.5725.1892-1.168.1892-1.7798 0-4.58579-3.6642-8.25-8.25-8.25Zm0 16.5c-3.66689 0-6.75007-2.409-7.83401-5.6743.78772-.7685 2.39864-1.9263 4.83382-1.9263.90083 0 1.53629.1676 2.03089.4086.5006.2439.9006.5835 1.3138.9967.126.126.2546.2617.3887.4031.7152.754 1.5845 1.6704 3.0258 2.1519 1.1829.4071 2.1888.3848 3.0204.1173C17.2945 18.8627 14.8217 20.25 12 20.25ZM2.25 12c0-5.41421 4.33579-9.75 9.75-9.75 5.4142 0 9.75 4.33579 9.75 9.75 0 5.4142-4.3358 9.75-9.75 9.75-5.41962 0-9.75-4.4412-9.75-9.75Zm12.5-2.5c0-.41421.3358-.75.75-.75s.75.33579.75.75-.3358.75-.75.75-.75-.33579-.75-.75Zm.75-2.25c-1.2426 0-2.25 1.00736-2.25 2.25 0 1.2426 1.0074 2.25 2.25 2.25s2.25-1.0074 2.25-2.25c0-1.24264-1.0074-2.25-2.25-2.25Z"/>
</svg>

<svg width="24" height="24" viewBox="0 0 24 24" fill="none" xmlns="http://www.w3.org/2000/svg">
<path fill-rule="evenodd" clip-rule="evenodd" d="M12 3.75C7.41421 3.75 3.75 7.41421 3.75 12C3.75 12.3069 3.76713 12.6103 3.80052 12.9094C4.89673 12.0576 6.63 11.1494 8.99981 11.1494C10.099 11.1494 10.9636 11.3568 11.6877 11.7095C12.4058 12.0594 12.9434 12.5323 13.4051 12.9941C13.5716 13.1605 13.7271 13.3227 13.8773 13.4794L13.8775 13.4796L13.8775 13.4797C14.5857 14.2185 15.176 14.8342 16.237 15.1879L16.2443 15.1903L16.2443 15.1904C17.4835 15.6177 18.3213 15.3914 18.9005 15.0271C19.4481 14.6826 19.8246 14.1749 20.0608 13.7798C20.1848 13.2073 20.25 12.6118 20.25 12C20.25 7.41421 16.5858 3.75 12 3.75ZM12 20.25C8.33311 20.25 5.24993 17.841 4.16599 14.5757C4.95371 13.8072 6.56463 12.6494 8.99981 12.6494C9.90064 12.6494 10.5361 12.817 11.0307 13.058C11.5313 13.3019 11.9313 13.6415 12.3445 14.0547C12.4705 14.1807 12.5991 14.3164 12.7332 14.4578C13.4484 15.2118 14.3177 16.1282 15.759 16.6097C16.9419 17.0168 17.9478 16.9945 18.7794 16.727C17.2945 18.8627 14.8217 20.25 12 20.25ZM2.25 12C2.25 6.58579 6.58579 2.25 12 2.25C17.4142 2.25 21.75 6.58579 21.75 12C21.75 17.4142 17.4142 21.75 12 21.75C6.58038 21.75 2.25 17.3088 2.25 12ZM14.75 9.5C14.75 9.08579 15.0858 8.75 15.5 8.75C15.9142 8.75 16.25 9.08579 16.25 9.5C16.25 9.91421 15.9142 10.25 15.5 10.25C15.0858 10.25 14.75 9.91421 14.75 9.5ZM15.5 7.25C14.2574 7.25 13.25 8.25736 13.25 9.5C13.25 10.7426 14.2574 11.75 15.5 11.75C16.7426 11.75 17.75 10.7426 17.75 9.5C17.75 8.25736 16.7426 7.25 15.5 7.25Z" fill="black"/>
</svg>
